front/main/app/symbols/main/user-activity.svg

<?xml version="1.0" encoding="UTF-8" standalone="no"?>
<svg width="18px" height="18px" viewBox="0 0 18 18" version="1.1" xmlns="http://www.w3.org/2000/svg" xmlns:xlink="http://www.w3.org/1999/xlink">
    <!-- Generator: sketchtool 41.2 (35397) - http://www.bohemiancoding.com/sketch -->
    <title>5A0B8B51-B84C-4B49-8B2D-1679EC661A52</title>
    <desc>Created with sketchtool.</desc>
    <defs></defs>
    <g id="Admin-Stuff" stroke="none" stroke-width="1" fill="none" fill-rule="evenodd">
        <g id="Post-List---Admin" transform="translate(-1021.000000, -536.000000)">
            <g id="Sidebar-Right" transform="translate(1021.000000, 354.000000)">
                <g id="Home" transform="translate(0.000000, 182.000000)">
                    <g id="Group-2">
                        <rect id="Rectangle-2" x="0" y="0" width="18" height="18"></rect>
                        <path d="M4.17450554,16 C3.68691976,16 3.22676067,15.7710142 2.93928822,15.3780386 L1.28860716,13.128178 C0.795942358,12.4572196 0.949328721,11.5192778 1.63194882,11.0343079 C2.31456893,10.547338 3.26637701,10.7003286 3.75904182,11.3722869 L3.9997873,11.7002666 L7.02992981,6.27760275 C7.28184913,5.82663071 7.75115045,5.53364887 8.27327357,5.50365073 C8.80352311,5.46965284 9.29618792,5.70763809 9.60194484,6.12561217 L11.1134608,8.19448391 L14.1405559,2.77781972 C14.5458616,2.05186473 15.4722746,1.78588122 16.2097481,2.18685636 C16.9472216,2.58583163 17.2153937,3.49777509 16.8100881,4.22373008 L12.6198977,11.7232651 C12.3679784,12.1742372 11.8986771,12.467219 11.3765539,12.4972172 C10.853415,12.5352148 10.3536396,12.2932298 10.0478827,11.8752557 L8.53636673,9.80638398 L5.50927164,15.2230482 C5.25735231,15.6740202 4.7890668,15.9660021 4.26795949,15.9970002 C4.23646957,15.9990001 4.20497965,16 4.17450554,16" id="Activity-Small" fill="#999999"></path>
                    </g>
                </g>
            </g>
        </g>
    </g>
</svg>

<svg width="18" height="18" viewBox="0 0 18 18" xmlns="http://www.w3.org/2000/svg"><g id="Admin-Stuff" fill="none" fill-rule="evenodd"><g id="Post-List---Admin"><g id="Sidebar-Right"><g id="Home"><g id="Group-2"><path id="Rectangle-2" d="M0 0h18v18H0z"/><path d="M4.175 16c-.488 0-.948-.23-1.236-.622l-1.65-2.25c-.494-.67-.34-1.61.342-2.094.683-.487 1.634-.334 2.127.338L4 11.7l3.03-5.422c.252-.45.72-.744 1.243-.774.53-.034 1.023.204 1.33.622l1.51 2.068 3.028-5.416c.406-.726 1.332-.992 2.07-.59.737.398 1.005 1.31.6 2.036l-4.19 7.5c-.252.45-.72.743-1.243.773-.524.038-1.023-.204-1.33-.622l-1.51-2.07-3.028 5.418c-.253.45-.72.743-1.242.774L4.175 16" id="Activity-Small" fill="#999"/></g></g></g></g></g></svg>
